X: 13
T:Gordon, The
M:4/4
L:1/8
R:Strathspey
K:Am
E|"Am"A2 B<d e2 dB|"Am"BA A/A/A "D7"B<AA<c|"G"B<d d>B "G7"cBAG|
"C"E2 G>A "D7"GEDE|!
"G"D>EG>A B2 g>f|"Em"e>dg>f e>d B<d|"Am"e>fg>f "Em"e<dc<B|
"Am"A/A/A "Em"e>d "Am"c<A A||!
B|"Am"A<a a>b a2 g>f|"Am"e>de>g "D7"a<ee>f|"G"g>ab>a "D7"b/a/g/f/ g>e|
"G"d>e "D7"d>c "G"B<GG>B|!
|"Am"A<a a>b a2 g>f|"C"e>d B<d "D7"e>fg>a|"G"b>g a<e "Em"g>e d<B|
"Am"A<a "Em"e>d "Am"c<A A||
